svgs/zlib.svg

<svg width="192" height="192" viewBox="0 0 192 192" fill="none" xmlns="http://www.w3.org/2000/svg">
<path d="M96.0874 146.419H89.2367V173L96.0874 146.419ZM96.0874 146.419H102.938V173L96.0874 146.419Z" stroke="black" stroke-width="6" stroke-linecap="round" stroke-linejoin="round"/>
<path d="M165.411 21L110.605 135.829M26 21L80.7495 135.857M110.605 135.88H82.1493" stroke="black" stroke-width="10" stroke-linecap="round" stroke-linejoin="round"/>
<path d="M165.648 21L141 26.7967L96.9832 119.017L49.7138 26.7967L26 21" stroke="black" stroke-width="10" stroke-linecap="round" stroke-linejoin="round"/>
<path d="M54.9835 33.6473C85.4203 26.215 103.283 26.329 136.664 33.6473" stroke="black" stroke-width="6" stroke-linecap="round" stroke-linejoin="round"/>
</svg>

<svg width="192" height="192" viewBox="0 0 192 192" fill="none" xmlns="http://www.w3.org/2000/svg"><path d="M96.087 146.419h-6.85V173l6.85-26.581Zm0 0h6.851V173l-6.85-26.581Z" stroke="#000" stroke-width="6" stroke-linecap="round" stroke-linejoin="round"/><path d="m165.411 21-54.806 114.829M26 21l54.75 114.857m29.855.023H82.149M165.648 21 141 26.797l-44.017 92.22-47.27-92.22L26 21" stroke="#000" stroke-width="10" stroke-linecap="round" stroke-linejoin="round"/><path d="M54.983 33.647c30.437-7.432 48.3-7.318 81.681 0" stroke="#000" stroke-width="6" stroke-linecap="round" stroke-linejoin="round"/></svg>
